!!!COM: Music21
!!!OTL: Polca
!!!OMV: pezas_polca_polca-4_polca-partitura.musicxml
**kern
*I"Bagpipes
*I'Bag
*clefG^2
*k[]
*M2/4
=1
!LO:TX:a:t=Andante
*MM100
!LO:TX:a:t=[quarter]=100
4.r
16eeLL
16ggJJ
=||
16cccLL
16gg
16ee
16ggJJ
16cccLL
16gg
16ee
16ggJJ
=
16cccLL
16bb
16aa
16ggJJ
16cccLL
16gg
16ee
16ggJJ
=
16bbLL
16gg
16dd
16eeJJ
16ffLL
16dd
16bb
16ddJJ
=
16ffLL
16ee
16dd
16eeJJ
16ffLL
16gg
16aa
16bbJJ
=
16cccLL
16gg
16ee
16ggJJ
16cccLL
16gg
16ee
16ggJJ
!!linebreak:original
=
16cccLL
16bb
16aa
16ggJJ
16cccLL
16gg
16ee
16ggJJ
=
16bbLL
16gg
16dd
16eeJJ
16ffLL
16dd
16bb
16aaJJ
=
16ggLL
16ff
16ee
16ddJJ
8ccL
16eeL
16ggJJ
=||
16cccLL
16gg
16ee
16ggJJ
16cccLL
16gg
16ee
16ggJJ
=
16cccLL
16bb
16aa
16ggJJ
16cccLL
16gg
16ee
16ggJJ
=
16bbLL
16gg
16dd
16eeJJ
16ffLL
16dd
16bb
16ddJJ
!!linebreak:original
=
16ffLL
16ee
16dd
16eeJJ
16ffLL
16gg
16aa
16bbJJ
=
16cccLL
16gg
16ee
16ggJJ
16cccLL
16gg
16ee
16ggJJ
!!linebreak:original
=
16cccLL
16bb
16aa
16ggJJ
16cccLL
16gg
16ee
16ggJJ
=
16bbLL
16gg
16dd
16eeJJ
16ffLL
16dd
16bb
16aaJJ
=
16ggLL
16ff
16ee
16ddJJ
8ccL
16ddL
16ccJJ
=||
16bLL
16dd
16dd
16eeJJ
16ffLL
16dd
16dd
16ccJJ
=
16bLL
16cc
16dd
16eeJJ
16ffLL
16dd
16gg
16ffJJ
!!linebreak:original
=
16eeLL
16cc
16cc
16bJJ
8ccL
16ccL
16ddJJ
=
16eeLL
16cc
16gg
16ccJJ
16aaLL
16gg
16ee
16ccJJ
=
8ddL
16ddL
16eeJJ
16ffLL
16dd
16dd
16ccJJ
=
16bLL
16cc
16dd
16eeJJ
16ffLL
16dd
16gg
16ffJJ
=
8eeL
16ggL
16eeJJ
16ffLL
16dd
16b
16ddJJ
=
16ddLL
16cc
16cc
16bJJ
8ccL
16ddL
16ccJJ
!!linebreak:original
=||
16bLL
16dd
16dd
16eeJJ
16ffLL
16dd
16dd
16ccJJ
=
16bLL
16cc
16dd
16eeJJ
16ffLL
16dd
16gg
16ffJJ
!!linebreak:original
=
16eeLL
16cc
16cc
16bJJ
8ccL
16ccL
16ddJJ
=
16eeLL
16cc
16gg
16ccJJ
16aaLL
16gg
16ee
16ccJJ
=
8ddL
16ddL
16eeJJ
16ffLL
16dd
16dd
16ccJJ
=
16bLL
16cc
16dd
16eeJJ
16ffLL
16dd
16gg
16ffJJ
=
8eeL
16ggL
16eeJJ
16ffLL
16dd
16b
16ddJJ
!!linebreak:original
=
16ddLL
16cc
16cc
16bJJ
8ccL
16eeL
16ggJJ
=||
*-
